;FLAVOR:Marlin
;TIME:13021
;Filament used: 9.27193m
;Layer height: 0.2
;MINX:24.137
;MINY:24.137
;MINZ:0.2
;MAXX:195.863
;MAXY:195.863
;MAXZ:12.6
;Generated with Cura_SteamEngine 4.10.0
M140 S70
M105
M190 S70
M104 S210
M105
M109 S210
M82 ;absolute extrusion mode
; Ender 3 Custom Start G-code
G92 E0 ; Reset Extruder
G28 ; Home all axes
G1 Z2.0 F3000 ; Move Z Axis up little to prevent scratching of Heat Bed
G1 X0.1 Y20 Z0.3 F5000.0 ; Move to start position
G1 X0.1 Y200.0 Z0.3 F1500.0 E15 ; Draw the first line
G1 X0.4 Y200.0 Z0.3 F5000.0 ; Move to side a little
G1 X0.4 Y20 Z0.3 F1500.0 E30 ; Draw the second line
G92 E0 ; Reset Extruder
G1 Z2.0 F3000 ; Move Z Axis up little to prevent scratching of Heat Bed
G1 X5 Y20 Z0.3 F5000.0 ; Move over to prevent blob squish
G92 E0
G92 E0
G1 F1500 E-6.5
;LAYER_COUNT:63
;LAYER:0
M107
G0 F6000 X26.42 Y56.826 Z0.2
;TYPE:SKIRT
G1 F1500 E0
G1 F1200 X56.826 Y26.42 E1.43021
G1 X57.412 Y25.89 E1.45648
G1 X58.048 Y25.423 E1.48273
G1 X58.728 Y25.022 E1.50898
G1 X59.446 Y24.692 E1.53527
G1 X60.193 Y24.437 E1.56152
G1 X60.962 Y24.258 E1.58778
G1 X61.746 Y24.158 E1.61407
G1 X62.535 Y24.137 E1.64032
G1 X63.322 Y24.197 E1.66657
G1 X64.1 Y24.336 E1.69286
G1 X64.859 Y24.553 E1.71911
G1 X65.593 Y24.845 E1.74539
G1 X66.293 Y25.21 E1.77164
G1 X66.953 Y25.644 E1.79792
G1 X67.565 Y26.143 E1.82418
G1 X67.856 Y26.42 E1.83754
G1 X193.58 Y152.144 E7.75121
G1 X194.11 Y152.73 E7.77749
G1 X194.577 Y153.366 E7.80374
G1 X194.978 Y154.046 E7.82999
G1 X195.308 Y154.764 E7.85628
G1 X195.563 Y155.511 E7.88253
G1 X195.742 Y156.28 E7.90879
G1 X195.842 Y157.064 E7.93508
G1 X195.863 Y157.853 E7.96133
G1 X195.803 Y158.64 E7.98758
G1 X195.664 Y159.418 E8.01387
G1 X195.447 Y160.177 E8.04012
G1 X195.155 Y160.911 E8.0664
G1 X194.79 Y161.611 E8.09265
G1 X194.356 Y162.271 E8.11893
G1 X193.857 Y162.883 E8.14519
G1 X193.58 Y163.174 E8.15855
G1 X163.174 Y193.58 E9.58876
G1 X162.588 Y194.11 E9.61504
G1 X161.952 Y194.577 E9.64128
G1 X161.272 Y194.978 E9.66754
G1 X160.554 Y195.308 E9.69382
G1 X159.807 Y195.563 E9.72007
G1 X159.038 Y195.742 E9.74633
G1 X158.254 Y195.842 E9.77262
G1 X157.465 Y195.863 E9.79887
G1 X156.678 Y195.803 E9.82512
G1 X155.9 Y195.664 E9.85141
G1 X155.141 Y195.447 E9.87767
G1 X154.407 Y195.155 E9.90394
G1 X153.707 Y194.79 E9.9302
G1 X153.047 Y194.356 E9.95647
G1 X152.435 Y193.857 E9.98273
G1 X152.144 Y193.58 E9.9961
G1 X26.42 Y67.856 E15.90977
G1 X25.89 Y67.27 E15.93605
G1 X25.423 Y66.634 E15.96229
G1 X25.022 Y65.954 E15.98855
G1 X24.692 Y65.236 E16.01483
G1 X24.437 Y64.489 E16.04108
G1 X24.258 Y63.72 E16.06734
G1 X24.158 Y62.936 E16.09363
G1 X24.137 Y62.147 E16.11988
G1 X24.197 Y61.36 E16.14613
G1 X24.336 Y60.582 E16.17242
G1 X24.553 Y59.823 E16.19868
G1 X24.845 Y59.089 E16.22495
G1 X25.21 Y58.389 E16.25121
G1 X25.644 Y57.729 E16.27748
G1 X26.143 Y57.117 E16.30374
G1 X26.42 Y56.826 E16.31711
G0 F6000 X26.702 Y57.108
G1 F1200 X57.108 Y26.702 E17.74731
G1 X57.68 Y26.188 E17.77289
G1 X58.302 Y25.735 E17.79848
G1 X58.967 Y25.349 E17.82406
G1 X59.669 Y25.034 E17.84965
G1 X60.4 Y24.794 E17.87524
G1 X61.151 Y24.631 E17.9008
G1 X61.916 Y24.547 E17.92639
G1 X62.685 Y24.543 E17.95197
G1 X63.45 Y24.619 E17.97754
G1 X64.204 Y24.773 E18.00314
G1 X64.937 Y25.005 E18.02871
G1 X65.642 Y25.312 E18.05428
G1 X66.312 Y25.691 E18.07989
G1 X66.939 Y26.137 E18.10548
G1 X67.574 Y26.702 E18.13375
G1 X193.298 Y152.426 E24.04742
G1 X193.812 Y152.998 E24.073
G1 X194.265 Y153.62 E24.09859
G1 X194.651 Y154.285 E24.12416
G1 X194.966 Y154.987 E24.14975
G1 X195.206 Y155.718 E24.17534
G1 X195.369 Y156.469 E24.2009
G1 X195.453 Y157.234 E24.2265
G1 X195.457 Y158.003 E24.25208
G1 X195.381 Y158.768 E24.27765
G1 X195.227 Y159.522 E24.30324
G1 X194.995 Y160.255 E24.32882
G1 X194.688 Y160.96 E24.35439
G1 X194.309 Y161.63 E24.37999
G1 X193.863 Y162.257 E24.40559
G1 X193.298 Y162.892 E24.43386
G1 X162.892 Y193.298 E25.86406
G1 X162.32 Y193.812 E25.88964
G1 X161.698 Y194.265 E25.91523
G1 X161.033 Y194.651 E25.94081
G1 X160.331 Y194.966 E25.9664
G1 X159.6 Y195.206 E25.99199
G1 X158.849 Y195.369 E26.01755
G1 X158.084 Y195.453 E26.04314
G1 X157.315 Y195.457 E26.06872
G1 X156.55 Y195.381 E26.09429
G1 X155.796 Y195.227 E26.11989
G1 X155.063 Y194.995 E26.14546
G1 X154.358 Y194.688 E26.17103
G1 X153.688 Y194.309 E26.19664
G1 X153.061 Y193.863 E26.22223
G1 X152.426 Y193.298 E26.2505
G1 X26.702 Y67.574 E32.16417
G1 X26.188 Y67.002 E32.18975
G1 X25.735 Y66.38 E32.21534
G1 X25.349 Y65.715 E32.24091
G1 X25.034 Y65.013 E32.2665
G1 X24.794 Y64.282 E32.29209
G1 X24.631 Y63.531 E32.31765
G1 X24.547 Y62.766 E32.34325
G1 X24.543 Y61.997 E32.36883
G1 X24.619 Y61.232 E32.3944
G1 X24.773 Y60.478 E32.41999
G1 X25.005 Y59.745 E32.44557
G1 X25.312 Y59.04 E32.47114
G1 X25.691 Y58.37 E32.49674
G1 X26.137 Y57.743 E32.52234
G1 X26.702 Y57.108 E32.55061
G0 F6000 X26.985 Y57.391
G1 F1200 X57.391 Y26.985 E33.98081
G1 X57.948 Y26.485 E34.00571
G1 X58.554 Y26.048 E34.03056
G1 X59.204 Y25.677 E34.05545
G1 X59.89 Y25.378 E34.08034
G1 X60.604 Y25.154 E34.10523
G1 X61.337 Y25.007 E34.13009
G1 X62.082 Y24.94 E34.15497
G1 X62.83 Y24.952 E34.17985
G1 X63.573 Y25.044 E34.20475
G1 X64.301 Y25.215 E34.22963
G1 X65.007 Y25.462 E34.2545
G1 X65.682 Y25.784 E34.27938
G1 X66.32 Y26.176 E34.30428
G1 X66.911 Y26.633 E34.32913
G1 X67.291 Y26.985 E34.34636
G1 X193.015 Y152.709 E40.26003
G1 X193.515 Y153.266 E40.28493
G1 X193.952 Y153.872 E40.30977
G1 X194.323 Y154.522 E40.33467
G1 X194.622 Y155.208 E40.35956
G1 X194.846 Y155.922 E40.38445
G1 X194.993 Y156.655 E40.40931
G1 X195.06 Y157.4 E40.43419
G1 X195.048 Y158.148 E40.45907
G1 X194.956 Y158.891 E40.48397
G1 X194.785 Y159.619 E40.50885
G1 X194.538 Y160.325 E40.53372
G1 X194.216 Y161 E40.5586
G1 X193.824 Y161.638 E40.5835
G1 X193.367 Y162.229 E40.60835
G1 X193.015 Y162.609 E40.62558
G1 X162.609 Y193.015 E42.05578
G1 X162.052 Y193.515 E42.08068
G1 X161.446 Y193.952 E42.10553
G1 X160.796 Y194.323 E42.13042
G1 X160.11 Y194.622 E42.15531
G1 X159.396 Y194.846 E42.1802
G1 X158.663 Y194.993 E42.20506
G1 X157.918 Y195.06 E42.22994
G1 X157.17 Y195.048 E42.25482
G1 X156.427 Y194.956 E42.27973
G1 X155.699 Y194.785 E42.3046
G1 X154.993 Y194.538 E42.32948
G1 X154.318 Y194.216 E42.35435
G1 X153.68 Y193.824 E42.37926
G1 X153.089 Y193.367 E42.4041
G1 X152.709 Y193.015 E42.42133
G1 X26.985 Y67.291 E48.335
G1 X26.485 Y66.734 E48.3599
G1 X26.048 Y66.128 E48.38475
G1 X25.677 Y65.478 E48.40964
G1 X25.378 Y64.792 E48.43453
G1 X25.154 Y64.078 E48.45942
G1 X25.007 Y63.345 E48.48428
G1 X24.94 Y62.6 E48.50916
G1 X24.952 Y61.852 E48.53404
G1 X25.044 Y61.109 E48.55895
G1 X25.215 Y60.381 E48.58382
G1 X25.462 Y59.675 E48.6087
G1 X25.784 Y59 E48.63357
G1 X26.176 Y58.362 E48.65847
G1 X26.633 Y57.771 E48.68332
G1 X26.985 Y57.391 E48.70055
G0 F6000 X27.268 Y57.674
G1 F1200 X57.674 Y27.268 E50.13076
G1 X58.215 Y26.784 E50.1549
G1 X58.806 Y26.361 E50.17907
G1 X59.44 Y26.007 E50.20322
G1 X60.109 Y25.724 E50.22738
G1 X60.805 Y25.516 E50.25154
G1 X61.52 Y25.386 E50.27572
G1 X62.244 Y25.336 E50.29985
G1 X62.97 Y25.365 E50.32402
G1 X63.688 Y25.474 E50.34817
G1 X64.39 Y25.661 E50.37234
G1 X65.067 Y25.924 E50.39649
G1 X65.711 Y26.26 E50.42065
G1 X66.314 Y26.665 E50.44481
G1 X67.008 Y27.268 E50.47539
G1 X192.732 Y152.992 E56.38906
G1 X193.216 Y153.533 E56.41321
G1 X193.639 Y154.124 E56.43738
G1 X193.993 Y154.758 E56.46153
G1 X194.276 Y155.427 E56.48569
G1 X194.484 Y156.123 E56.50985
G1 X194.614 Y156.838 E56.53402
G1 X194.664 Y157.562 E56.55816
G1 X194.635 Y158.288 E56.58233
G1 X194.526 Y159.006 E56.60648
G1 X194.339 Y159.708 E56.63064
G1 X194.076 Y160.385 E56.6548
G1 X193.74 Y161.029 E56.67896
G1 X193.335 Y161.632 E56.70312
G1 X192.732 Y162.326 E56.7337
G1 X162.326 Y192.732 E58.1639
G1 X161.785 Y193.216 E58.18805
G1 X161.194 Y193.639 E58.21222
G1 X160.56 Y193.993 E58.23637
G1 X159.891 Y194.276 E58.26053
G1 X159.195 Y194.484 E58.28469
G1 X158.48 Y194.614 E58.30886
G1 X157.756 Y194.664 E58.333
G1 X157.03 Y194.635 E58.35716
G1 X156.312 Y194.526 E58.38132
G1 X155.61 Y194.339 E58.40548
G1 X154.933 Y194.076 E58.42964
G1 X154.289 Y193.74 E58.4538
G1 X153.686 Y193.335 E58.47796
G1 X152.992 Y192.732 E58.50854
G1 X27.268 Y67.008 E64.42221
G1 X26.784 Y66.467 E64.44635
G1 X26.361 Y65.876 E64.47052
G1 X26.007 Y65.242 E64.49468
G1 X25.724 Y64.573 E64.51884
G1 X25.516 Y63.877 E64.543
G1 X25.386 Y63.162 E64.56717
G1 X25.336 Y62.438 E64.5913
G1 X25.365 Y61.712 E64.61547
G1 X25.474 Y60.994 E64.63963
G1 X25.661 Y60.292 E64.66379
G1 X25.924 Y59.615 E64.68794
G1 X26.26 Y58.971 E64.7121
G1 X26.665 Y58.368 E64.73626
G1 X27.268 Y57.674 E64.76684
G0 F6000 X27.551 Y57.957
G1 F1200 X57.957 Y27.551 E66.19705
G1 X58.482 Y27.082 E66.22046
G1 X59.057 Y26.676 E66.24387
G1 X59.675 Y26.338 E66.2673
G1 X60.326 Y26.071 E66.2907
G1 X61.004 Y25.881 E66.31412
G1 X61.699 Y25.768 E66.33754
G1 X62.402 Y25.735 E66.36095
G1 X63.105 Y25.782 E66.38438
G1 X63.797 Y25.908 E66.40778
G1 X64.471 Y26.112 E66.4312
G1 X65.117 Y26.391 E66.4546
G1 X65.728 Y26.742 E66.47804
G1 X66.295 Y27.159 E66.50145
G1 X66.725 Y27.551 E66.5208
G1 X192.449 Y153.275 E72.43448
G1 X192.918 Y153.8 E72.45789
G1 X193.324 Y154.375 E72.4813
G1 X193.662 Y154.993 E72.50473
G1 X193.929 Y155.644 E72.52813
G1 X194.119 Y156.322 E72.55155
G1 X194.232 Y157.017 E72.57497
G1 X194.265 Y157.72 E72.59838
G1 X194.218 Y158.423 E72.62181
G1 X194.092 Y159.115 E72.64521
G1 X193.888 Y159.789 E72.66863
G1 X193.609 Y160.435 E72.69203
G1 X193.258 Y161.046 E72.71547
G1 X192.841 Y161.613 E72.73888
G1 X192.449 Y162.043 E72.75823
G1 X162.043 Y192.449 E74.18844
G1 X161.518 Y192.918 E74.21185
G1 X160.943 Y193.324 E74.23526
G1 X160.325 Y193.662 E74.25869
G1 X159.674 Y193.929 E74.28209
G1 X158.996 Y194.119 E74.30551
G1 X158.301 Y194.232 E74.32893
G1 X157.598 Y194.265 E74.35234
G1 X156.895 Y194.218 E74.37577
G1 X156.203 Y194.092 E74.39917
G1 X155.529 Y193.888 E74.42259
G1 X154.883 Y193.609 E74.44599
G1 X154.272 Y193.258 E74.46943
G1 X153.705 Y192.841 E74.49284
G1 X153.275 Y192.449 E74.51219
G1 X27.551 Y66.725 E80.42586
G1 X27.082 Y66.2 E80.44928
G1 X26.676 Y65.625 E80.47269
G1 X26.338 Y65.007 E80.49612
G1 X26.071 Y64.356 E80.51952
G1 X25.881 Y63.678 E80.54294
G1 X25.768 Y62.983 E80.56636
G1 X25.735 Y62.28 E80.58977
G1 X25.782 Y61.577 E80.6132
G1 X25.908 Y60.885 E80.6366
G1 X26.112 Y60.211 E80.66002
G1 X26.391 Y59.565 E80.68342
G1 X26.742 Y58.954 E80.70686
G1 X27.159 Y58.387 E80.73027
G1 X27.551 Y57.957 E80.74962
G0 F6000 X27.834 Y58.24
G1 F1200 X58.24 Y27.834 E82.17983
G1 X58.749 Y27.381 E82.20249
G1 X59.307 Y26.992 E82.22511
G1 X59.907 Y26.67 E82.24776
G1 X60.541 Y26.421 E82.27042
G1 X61.2 Y26.248 E82.29308
G1 X61.874 Y26.154 E82.31571
G1 X62.555 Y26.139 E82.33837
G1 X63.232 Y26.204 E82.36099
G1 X63.898 Y26.348 E82.38365
G1 X64.542 Y26.569 E82.4063
G1 X65.156 Y26.864 E82.42895
G1 X65.73 Y27.228 E82.45156
G1 X66.442 Y27.834 E82.48266
G1 X192.166 Y153.558 E88.39633
G1 X192.619 Y154.067 E88.41899
G1 X193.008 Y154.625 E88.44161
G1 X193.33 Y155.225 E88.46426
G1 X193.579 Y155.859 E88.48692
G1 X193.752 Y156.518 E88.50958
G1 X193.846 Y157.192 E88.53221
G1 X193.861 Y157.873 E88.55487
G1 X193.796 Y158.55 E88.57749
G1 X193.652 Y159.216 E88.60015
G1 X193.431 Y159.86 E88.6228
G1 X193.136 Y160.474 E88.64545
G1 X192.772 Y161.048 E88.66806
G1 X192.166 Y161.76 E88.69916
G1 X161.76 Y192.166 E90.12936
G1 X161.251 Y192.619 E90.15203
G1 X160.693 Y193.008 E90.17465
G1 X160.093 Y193.33 E90.1973
G1 X159.459 Y193.579 E90.21995
G1 X158.8 Y193.752 E90.24261
G1 X158.126 Y193.846 E90.26525
G1 X157.445 Y193.861 E90.2879
G1 X156.768 Y193.796 E90.31053
G1 X156.102 Y193.652 E90.33319
G1 X155.458 Y193.431 E90.35583
G1 X154.844 Y193.136 E90.37849
G1 X154.27 Y192.772 E90.4011
G1 X153.558 Y192.166 E90.43219
G1 X27.834 Y66.442 E96.34587
G1 X27.381 Y65.933 E96.36853
G1 X26.992 Y65.375 E96.39115
G1 X26.67 Y64.775 E96.4138
G1 X26.421 Y64.141 E96.43646
G1 X26.248 Y63.482 E96.45912
G1 X26.154 Y62.808 E96.48175
G1 X26.139 Y62.127 E96.50441
G1 X26.204 Y61.45 E96.52703
G1 X26.348 Y60.784 E96.54969
G1 X26.569 Y60.14 E96.57234
G1 X26.864 Y59.526 E96.59499
G1 X27.228 Y58.952 E96.6176
G1 X27.834 Y58.24 E96.6487
G0 F6000 X28.117 Y58.523
G1 F1200 X58.523 Y28.117 E98.0789
G1 X59.015 Y27.681 E98.10077
G1 X59.556 Y27.309 E98.1226
G1 X60.138 Y27.005 E98.14444
G1 X60.753 Y26.774 E98.16629
G1 X61.392 Y26.619 E98.18816
G1 X62.044 Y26.543 E98.21
G1 X62.701 Y26.547 E98.23185
G1 X63.353 Y26.631 E98.25371
G1 X63.989 Y26.793 E98.27554
G1 X64.602 Y27.031 E98.29741
G1 X65.18 Y27.342 E98.31924
G1 X65.717 Y27.721 E98.3411
G1 X66.159 Y28.117 E98.36084
G1 X191.883 Y153.841 E104.27451
G1 X192.319 Y154.333 E104.29638
G1 X192.691 Y154.874 E104.31822
G1 X192.995 Y155.456 E104.34005
G1 X193.226 Y156.071 E104.36191
G1 X193.381 Y156.71 E104.38377
G1 X193.457 Y157.362 E104.40561
G1 X193.453 Y158.019 E104.42746
G1 X193.369 Y158.671 E104.44932
G1 X193.207 Y159.307 E104.47115
G1 X192.969 Y159.92 E104.49302
G1 X192.658 Y160.498 E104.51485
G1 X192.279 Y161.035 E104.53672
G1 X191.883 Y161.477 E104.55645
G1 X161.477 Y191.883 E105.98666
G1 X160.985 Y192.319 E106.00852
G1 X160.444 Y192.691 E106.03036
G1 X159.862 Y192.995 E106.0522
G1 X159.247 Y193.226 E106.07405
G1 X158.608 Y193.381 E106.09592
G1 X157.956 Y193.457 E106.11775
G1 X157.299 Y193.453 E106.1396
G1 X156.647 Y193.369 E106.16147
G1 X156.011 Y193.207 E106.1833
G1 X155.398 Y192.969 E106.20517
G1 X154.82 Y192.658 E106.227
G1 X154.283 Y192.279 E106.24886
G1 X153.841 Y191.883 E106.2686
G1 X28.117 Y66.159 E112.18227
G1 X27.681 Y65.667 E112.20414
G1 X27.309 Y65.126 E112.22597
G1 X27.005 Y64.544 E112.24781
G1 X26.774 Y63.929 E112.26966
G1 X26.619 Y63.29 E112.29153
G1 X26.543 Y62.638 E112.31336
G1 X26.547 Y61.981 E112.33522
G1 X26.631 Y61.329 E112.35708
G1 X26.793 Y60.693 E112.37891
G1 X27.031 Y60.08 E112.40078
G1 X27.342 Y59.502 E112.42261
G1 X27.721 Y58.965 E112.44447
G1 X28.117 Y58.523 E112.46421
G0 F6000 X28.399 Y58.805
G1 F1200 X58.805 Y28.399 E113.89442
G1 X59.28 Y27.982 E113.91544
G1 X59.803 Y27.627 E113.93646
G1 X60.367 Y27.341 E113.9575
G1 X60.962 Y27.129 E113.9785
G1 X61.58 Y26.993 E113.99955
G1 X62.209 Y26.937 E114.02055
G1 X62.841 Y26.96 E114.04159
G1 X63.465 Y27.063 E114.06262
G1 X64.071 Y27.244 E114.08366
G1 X64.649 Y27.499 E114.10467
G1 X65.19 Y27.826 E114.1257
G1 X65.877 Y28.399 E114.15545
G1 X191.601 Y154.123 E120.06912
G1 X192.018 Y154.598 E120.09014
G1 X192.373 Y155.121 E120.11117
G1 X192.659 Y155.685 E120.1322
G1 X192.871 Y156.28 E120.15321
G1 X193.007 Y156.898 E120.17426
G1 X193.063 Y157.527 E120.19526
G1 X193.04 Y158.159 E120.21629
G1 X192.937 Y158.783 E120.23733
G1 X192.756 Y159.389 E120.25836
G1 X192.501 Y159.967 E120.27938
G1 X192.174 Y160.508 E120.3004
G1 X191.601 Y161.195 E120.33016
G1 X161.195 Y191.601 E121.76036
G1 X160.72 Y192.018 E121.78138
G1 X160.197 Y192.373 E121.80241
G1 X159.633 Y192.659 E121.82344
G1 X159.038 Y192.871 E121.84445
G1 X158.42 Y193.007 E121.8655
G1 X157.791 Y193.063 E121.8865
G1 X157.159 Y193.04 E121.90753
G1 X156.535 Y192.937 E121.92857
G1 X155.929 Y192.756 E121.9496
G1 X155.351 Y192.501 E121.97062
G1 X154.81 Y192.174 E121.99164
G1 X154.123 Y191.601 E122.0214
G1 X28.399 Y65.877 E127.93507
G1 X27.982 Y65.402 E127.95609
G1 X27.627 Y64.879 E127.97711
G1 X27.341 Y64.315 E127.99815
G1 X27.129 Y63.72 E128.01916
G1 X26.993 Y63.102 E128.0402
G1 X26.937 Y62.473 E128.06121
G1 X26.96 Y61.841 E128.08224
G1 X27.063 Y61.217 E128.10327
G1 X27.244 Y60.611 E128.12431
G1 X27.499 Y60.033 E128.14532
G1 X27.826 Y59.492 E128.16635
G1 X28.399 Y58.805 E128.1961
G0 F6000 X28.682 Y59.088
G1 F1200 X59.088 Y28.682 E129.62631
G1 X59.544 Y28.283 E129.64646
G1 X60.049 Y27.947 E129.66663
G1 X60.593 Y27.68 E129.68679
G1 X61.168 Y27.487 E129.70696
G1 X61.763 Y27.371 E129.72712
G1 X62.369 Y27.335 E129.74732
G1 X62.973 Y27.379 E129.76746
G1 X63.567 Y27.501 E129.78763
G1 X64.14 Y27.701 E129.80781
G1 X64.681 Y27.974 E129.82797
G1 X65.181 Y28.317 E129.84813
G1 X65.594 Y28.682 E129.86647
G1 X191.318 Y154.406 E135.78014
G1 X191.717 Y154.862 E135.80029
G1 X192.053 Y155.367 E135.82047
G1 X192.32 Y155.911 E135.84062
G1 X192.513 Y156.486 E135.86079
G1 X192.629 Y157.081 E135.88096
